neru-dark-classic/22x22/actions/cache.svg

<?xml version="1.0" encoding="UTF-8" standalone="no"?>
<svg
   xmlns:dc="http://purl.org/dc/elements/1.1/"
   xmlns:cc="http://creativecommons.org/ns#"
   xmlns:rdf="http://www.w3.org/1999/02/22-rdf-syntax-ns#"
   xmlns:svg="http://www.w3.org/2000/svg"
   xmlns="http://www.w3.org/2000/svg"
   xmlns:sodipodi="http://sodipodi.sourceforge.net/DTD/sodipodi-0.dtd"
   xmlns:inkscape="http://www.inkscape.org/namespaces/inkscape"
   width="22"
   height="22"
   viewBox="0 0 22 22"
   version="1.1"
   id="svg7"
   sodipodi:docname="cache.svg"
   inkscape:version="0.92.1 r">
  <metadata
     id="metadata11">
    <rdf:RDF>
      <cc:Work
         rdf:about="">
        <dc:format>image/svg+xml</dc:format>
        <dc:type
           rdf:resource="http://purl.org/dc/dcmitype/StillImage" />
      </cc:Work>
    </rdf:RDF>
  </metadata>
  <sodipodi:namedview
     pagecolor="#ffffff"
     bordercolor="#666666"
     borderopacity="1"
     objecttolerance="10"
     gridtolerance="10"
     guidetolerance="10"
     inkscape:pageopacity="0"
     inkscape:pageshadow="2"
     inkscape:window-width="1680"
     inkscape:window-height="964"
     id="namedview9"
     showgrid="false"
     inkscape:zoom="10.727273"
     inkscape:cx="-6.4788137"
     inkscape:cy="10.440678"
     inkscape:window-x="0"
     inkscape:window-y="0"
     inkscape:window-maximized="1"
     inkscape:current-layer="svg7" />
  <defs
     id="defs3">
    <style
       type="text/css"
       id="current-color-scheme">
   .ColorScheme-Text { color:#d3dae3; } .ColorScheme-Highlight { color:#5294e2; }
  </style>
  </defs>
  <path
     style="opacity:1;fill:#d3dae3;fill-opacity:1;stroke:none;stroke-width:2;stroke-linecap:round;stroke-linejoin:bevel;stroke-miterlimit:4;stroke-dasharray:none;stroke-opacity:1"
     d="M 6.0507812 4 C 4.9146117 4 4 4.9146117 4 6.0507812 L 4 15.949219 C 4 17.085388 4.9146117 18 6.0507812 18 L 15.949219 18 C 17.085388 18 18 17.085388 18 15.949219 L 18 6.0507812 C 18 4.9146117 17.085388 4 15.949219 4 L 6.0507812 4 z M 11 7 C 13.2091 7 15 8.7908998 15 11 C 15 13.2091 13.2091 15 11 15 L 7 15 L 7 11 C 7 8.7908998 8.7908998 7 11 7 z M 11 9 C 9.8953998 9 9 9.8954298 9 11 C 9 12.10457 9.8954298 13 11 13 C 12.10457 13 13 12.10457 13 11 C 13 9.8954298 12.10457 9 11 9 z "
     id="rect818" />
</svg>

<svg xmlns="http://www.w3.org/2000/svg" width="22" height="22" version="1.1" id="svg7"><defs id="defs3"><style type="text/css" id="current-color-scheme"></style></defs><path d="M6.05 4C4.916 4 4 4.915 4 6.05v9.9C4 17.084 4.915 18 6.05 18h9.9c1.135 0 2.05-.915 2.05-2.05v-9.9C18 4.916 17.085 4 15.95 4h-9.9zM11 7a4 4 0 0 1 0 8H7v-4a4 4 0 0 1 4-4zm0 2a2 2 0 1 0 0 4 2 2 0 0 0 0-4z" id="rect818" opacity="1" fill="#d3dae3" fill-opacity="1" stroke="none" stroke-width="2" stroke-linecap="round" stroke-linejoin="bevel" stroke-miterlimit="4" stroke-dasharray="none" stroke-opacity="1"/></svg>
